lib/svgs/qq.svg

<svg xmlns="http://www.w3.org/2000/svg" viewBox="0 0 20 20">
    <path fill="#000" fill-rule="evenodd" d="M10.368 3l-.184.027-.184.028-.184.027-.211.055-.184.054-.158.055-.184.055-.158.054-.184.083-.158.082-.132.082-.158.082-.131.109-.132.109-.105.11-.184.164-.132.137-.131.164-.132.164-.131.136-.106.164L7 5.105l-.026.055-.053.082-.105.137-.053.164-.079.137-.052.136-.053.137-.053.137-.052.109-.027.137-.078.219-.027.218-.026.165-.026.164v.3l-.053.055-.026.055-.027.054-.026.055-.026.137-.053.109v.274L6 8.277l-.079.11-.026.109-.053.109v.11l-.026.082v.301l.026.109.027.082-.053.027-.132.11-.158.164-.105.082-.105.082-.053.082-.052.055-.132.136-.132.137-.078.137-.106.164-.105.137-.105.164-.079.164-.079.164-.079.164-.053.137-.052.164-.053.164-.026.164-.053.136-.026.137-.027.137v.137L4 12.68v.355l.026.11.027.191v.082l.026.055.026.082.027.054.079.137.052.055.106-.028.105-.027.079-.027.105-.055.079-.055.053-.082.105-.082.052-.082.079-.082.053-.082.053-.054.026-.082.079-.137.026-.082.027-.055h.079l.026.164.052.137.053.164.053.109.052.137.079.109.053.137.053.109.052.083.053.109.158.164.105.137.132.136.105.11.105.082.132.137.079.027-.053.055h-.105l-.106.027h-.078l-.079.027-.079.028-.079.027-.079.027-.053.055h-.079l-.026.055-.053.027-.052.027-.053.082-.026.055-.079.109-.027.082-.026.055v.301l-.026.055v.054l.026.055v.055l.026.109.053.082.026.055.053.027.026.055.053.027.079.082.105.055.132.055.105.054.132.055.157.055.132.027.158.055.158.027h.184l.158.027.316.055h1.105l.131-.027h.106l.131-.028.184-.027.132-.027.105-.055.237-.082.105-.055.106-.054.158-.082.157-.083.106-.082.079-.054h.237l.184.027h.237l.052.027.105.055.106.027.184.055.21.082.211.055.184.055.211.054.21.028.211.027.21.027.185.028H13.974l.184-.028h.158l.184-.027.158-.027.158-.055.158-.027.052-.028.079-.027.132-.055.105-.054.105-.055.106-.055.105-.082.079-.082.052-.055.053-.082.026-.082.027-.054.026-.055v-.164l-.026-.055-.027-.082-.026-.055-.026-.054-.053-.082-.026-.055-.079-.055-.105-.109-.132-.082-.158-.082-.131-.109-.316-.164-.079-.028-.053-.055.158-.164.079-.082.053-.082.105-.164.105-.164.079-.136.105-.137.106-.301.079-.246.052-.164.053-.055v-.055h.079l.079.165.079.164.052.109.053.055.053.109.079.109.052.055.027.055.105.082.105.027h.079l.053-.027.052-.028.079-.082.026-.054.053-.028.026-.082.027-.054.026-.082.026-.055.053-.164.026-.164.027-.192.026-.109v-.328l-.026-.219-.053-.246-.026-.246-.053-.137-.026-.136-.053-.137-.026-.137-.053-.137-.079-.136-.079-.219-.105-.191-.079-.192-.079-.164-.105-.164-.053-.137-.158-.191-.158-.274-.052-.082v-.054l.026-.082.026-.082.053-.164v-.192l.026-.054v-.083l-.026-.082v-.054l-.026-.137-.027-.137-.026-.109-.052-.137-.053-.082-.053-.109-.052-.082-.079-.11-.027-.109-.026-.246-.026-.164-.027-.192-.052-.218-.053-.246-.026-.137-.026-.109-.053-.137-.026-.137-.053-.137-.053-.136-.131-.274-.053-.109-.079-.164-.079-.11-.079-.164-.105-.136-.079-.11-.131-.136-.106-.137-.105-.11-.132-.109-.079-.055-.078-.054-.132-.11-.158-.109-.184-.109-.184-.082-.185-.082-.184-.083-.184-.082-.211-.054-.184-.055-.21-.055-.185-.027-.21-.027-.184-.028L11.184 3z"/>
</svg>

<svg xmlns="http://www.w3.org/2000/svg" viewBox="0 0 20 20">
    <path fill="#000" fill-rule="evenodd" d="M10.368 3L10.184 3.027 10 3.055 9.816 3.082 9.605 3.137 9.421 3.191 9.263 3.246 9.079 3.301 8.921 3.355 8.737 3.438 8.579 3.52 8.447 3.602 8.289 3.684 8.158 3.793 8.026 3.902 7.921 4.012 7.737 4.176 7.605 4.313 7.474 4.477 7.342 4.641 7.211 4.777 7.105 4.941 7 5.105 6.974 5.16 6.921 5.242 6.816 5.379 6.763 5.543 6.684 5.68 6.632 5.816 6.579 5.953 6.526 6.09 6.474 6.199 6.447 6.336 6.369 6.555 6.342 6.773 6.316 6.938 6.29 7.102 6.29 7.402 6.237 7.457 6.211 7.512 6.184 7.566 6.158 7.621 6.132 7.758 6.079 7.867 6.079 7.977 6.079 8.059 6.079 8.141 6 8.277 5.921 8.387 5.895 8.496 5.842 8.605 5.842 8.715 5.816 8.797 5.816 9.043 5.816 9.098 5.842 9.207 5.869 9.289 5.816 9.316 5.684 9.426 5.526 9.59 5.421 9.672 5.316 9.754 5.263 9.836 5.211 9.891 5.079 10.027 4.947 10.164 4.869 10.301 4.763 10.465 4.658 10.602 4.553 10.766 4.474 10.93 4.395 11.094 4.316 11.258 4.263 11.395 4.211 11.559 4.158 11.723 4.132 11.887 4.079 12.023 4.053 12.16 4.026 12.297 4.026 12.434 4 12.68 4 13.035 4.026 13.145 4.053 13.336 4.053 13.418 4.079 13.473 4.105 13.555 4.132 13.609 4.211 13.746 4.211 13.773 4.263 13.801 4.369 13.773 4.474 13.746 4.553 13.719 4.658 13.664 4.737 13.609 4.79 13.527 4.895 13.445 4.947 13.363 5.026 13.281 5.079 13.199 5.132 13.145 5.158 13.063 5.237 12.926 5.263 12.844 5.29 12.789 5.316 12.762 5.369 12.789 5.395 12.953 5.447 13.09 5.5 13.254 5.553 13.363 5.605 13.5 5.684 13.609 5.737 13.746 5.79 13.855 5.842 13.938 5.895 14.047 6.053 14.211 6.158 14.348 6.29 14.484 6.395 14.594 6.5 14.676 6.632 14.813 6.711 14.84 6.711 14.867 6.658 14.895 6.553 14.895 6.447 14.922 6.369 14.922 6.29 14.949 6.211 14.977 6.132 15.004 6.053 15.031 6 15.086 5.921 15.086 5.895 15.141 5.842 15.168 5.79 15.195 5.737 15.277 5.711 15.332 5.684 15.359 5.632 15.441 5.605 15.523 5.579 15.578 5.579 15.633 5.579 15.77 5.579 15.824 5.579 15.879 5.553 15.934 5.553 15.988 5.579 16.043 5.579 16.098 5.605 16.207 5.632 16.234 5.658 16.289 5.684 16.344 5.737 16.371 5.763 16.426 5.816 16.453 5.895 16.535 6 16.59 6.132 16.645 6.237 16.699 6.369 16.754 6.526 16.809 6.658 16.836 6.816 16.891 6.974 16.918 7.158 16.918 7.316 16.945 7.632 17 7.974 17 8.579 17 8.737 17 8.868 16.973 8.974 16.973 9.105 16.945 9.289 16.918 9.421 16.891 9.526 16.836 9.763 16.754 9.868 16.699 9.974 16.645 10.132 16.563 10.289 16.48 10.395 16.398 10.474 16.344 10.605 16.344 10.711 16.344 10.895 16.371 11.053 16.371 11.132 16.371 11.184 16.398 11.289 16.453 11.395 16.48 11.579 16.535 11.789 16.617 12 16.672 12.184 16.727 12.395 16.781 12.605 16.809 12.816 16.836 13.026 16.863 13.211 16.891 13.395 16.891 13.974 16.891 14.158 16.863 14.316 16.863 14.5 16.836 14.658 16.809 14.816 16.754 14.974 16.727 15.026 16.699 15.105 16.672 15.237 16.617 15.342 16.563 15.447 16.508 15.553 16.453 15.658 16.371 15.684 16.344 15.737 16.289 15.789 16.234 15.842 16.152 15.868 16.07 15.895 16.016 15.921 15.961 15.921 15.906 15.921 15.879 15.921 15.797 15.895 15.742 15.868 15.66 15.842 15.605 15.816 15.551 15.763 15.469 15.737 15.414 15.658 15.359 15.553 15.25 15.421 15.168 15.263 15.086 15.132 14.977 14.816 14.813 14.737 14.785 14.684 14.73 14.842 14.566 14.921 14.484 14.974 14.402 15.079 14.238 15.184 14.074 15.263 13.938 15.368 13.801 15.474 13.5 15.553 13.254 15.605 13.09 15.658 13.035 15.658 12.98 15.737 12.98 15.816 13.145 15.895 13.309 15.947 13.418 16 13.473 16.053 13.582 16.132 13.691 16.184 13.746 16.211 13.801 16.237 13.828 16.316 13.883 16.421 13.91 16.5 13.91 16.553 13.883 16.605 13.855 16.631 13.828 16.684 13.773 16.71 13.719 16.763 13.691 16.789 13.609 16.816 13.555 16.842 13.473 16.868 13.418 16.921 13.254 16.947 13.09 16.974 12.898 17 12.789 17 12.461 16.974 12.242 16.921 11.996 16.895 11.75 16.842 11.613 16.816 11.477 16.763 11.34 16.737 11.203 16.684 11.066 16.605 10.93 16.526 10.711 16.421 10.52 16.342 10.328 16.263 10.164 16.158 10 16.105 9.863 15.947 9.672 15.789 9.398 15.737 9.316 15.737 9.262 15.763 9.18 15.789 9.098 15.842 8.934 15.842 8.852 15.842 8.742 15.868 8.688 15.868 8.605 15.842 8.523 15.842 8.469 15.816 8.332 15.789 8.195 15.763 8.086 15.711 7.949 15.658 7.867 15.605 7.758 15.553 7.676 15.474 7.566 15.447 7.457 15.421 7.211 15.395 7.047 15.368 6.855 15.316 6.637 15.263 6.391 15.237 6.254 15.211 6.145 15.158 6.008 15.132 5.871 15.079 5.734 15.026 5.598 14.895 5.324 14.842 5.215 14.763 5.051 14.684 4.941 14.605 4.777 14.5 4.641 14.421 4.531 14.29 4.395 14.184 4.258 14.079 4.148 13.947 4.039 13.868 3.984 13.79 3.93 13.658 3.82 13.5 3.711 13.316 3.602 13.132 3.52 12.947 3.438 12.763 3.355 12.579 3.273 12.368 3.219 12.184 3.164 11.974 3.109 11.789 3.082 11.579 3.055 11.395 3.027 11.184 3z"/>
</svg>
